packages/Snapp/src/CircleCloseIcon/index.svg

<?xml version="1.0" encoding="UTF-8"?>
<svg width="24px" height="24px" viewBox="0 0 24 24" version="1.1" xmlns="http://www.w3.org/2000/svg" xmlns:xlink="http://www.w3.org/1999/xlink">
    <title>Icons/24/CircleClose</title>
    <g id="Icons/24/CircleClose" stroke="none" stroke-width="1" fill="none" fill-rule="evenodd">
        <rect id="Container" fill-opacity="0" fill="#D8D8D8" fill-rule="nonzero" x="0" y="0" width="24" height="24"></rect>
        <path d="M13.4142136,12 L15.5355339,14.1213203 C15.9260582,14.5118446 15.9260582,15.1450096 15.5355339,15.5355339 C15.1450096,15.9260582 14.5118446,15.9260582 14.1213203,15.5355339 L12,13.4142136 L9.87867966,15.5355339 C9.48815536,15.9260582 8.85499039,15.9260582 8.46446609,15.5355339 C8.0739418,15.1450096 8.0739418,14.5118446 8.46446609,14.1213203 L10.5857864,12 L8.46446609,9.87867966 C8.0739418,9.48815536 8.0739418,8.85499039 8.46446609,8.46446609 C8.85499039,8.0739418 9.48815536,8.0739418 9.87867966,8.46446609 L12,10.5857864 L14.1213203,8.46446609 C14.5118446,8.0739418 15.1450096,8.0739418 15.5355339,8.46446609 C15.9260582,8.85499039 15.9260582,9.48815536 15.5355339,9.87867966 L13.4142136,12 Z M4.92893219,19.0710678 C1.02368927,15.1658249 1.02368927,8.83417511 4.92893219,4.92893219 C8.83417511,1.02368927 15.1658249,1.02368927 19.0710678,4.92893219 C22.9763107,8.83417511 22.9763107,15.1658249 19.0710678,19.0710678 C15.1658249,22.9763107 8.83417511,22.9763107 4.92893219,19.0710678 Z M6.34314575,17.6568542 C9.46734008,20.7810486 14.5326599,20.7810486 17.6568542,17.6568542 C20.7810486,14.5326599 20.7810486,9.46734008 17.6568542,6.34314575 C14.5326599,3.21895142 9.46734008,3.21895142 6.34314575,6.34314575 C3.21895142,9.46734008 3.21895142,14.5326599 6.34314575,17.6568542 Z" id="Shape" fill="#404040" fill-rule="nonzero"></path>
    </g>
</svg>

<svg viewBox="0 0 24 24" xmlns="http://www.w3.org/2000/svg" fill="currentColor" focusable="false">
  <g fill-rule="evenodd">
    <path d="M0 0h24v24H0z"/>
    <path d="M13.414 12l2.122 2.121a1 1 0 01-1.415 1.415L12 13.414l-2.121 2.122a1 1 0 11-1.415-1.415L10.586 12 8.464 9.879A1 1 0 019.88 8.464L12 10.586l2.121-2.122a1 1 0 011.415 1.415L13.414 12zM4.93 19.071c-3.905-3.905-3.905-10.237 0-14.142 3.905-3.905 10.237-3.905 14.142 0 3.905 3.905 3.905 10.237 0 14.142-3.905 3.905-10.237 3.905-14.142 0zm1.414-1.414A8 8 0 1017.657 6.343 8 8 0 006.343 17.657z" fill-rule="nonzero"/>
  </g>
</svg>
